src/pos-icons/beaker-question.svg

<svg height="24" viewBox="0 0 24 24" width="24" xmlns="http://www.w3.org/2000/svg"><path d="m0 3h18v2c-1.1 0-2 .9-2 2v12c0 1.1-.9 2-2 2h-10c-1.1 0-2-.9-2-2v-12c0-1.1-.9-2-2-2zm4 6v1h3v-1zm0 2v1h3v-1zm3 5v-1h-3v1zm2-2v-1h-5v1zm0-6v-1h-5v1zm12.5 7.5v1.5h-1.5v-1.5zm-2-5h-1.5v-.5c0-1.66 1.34-3 3-3s3 1.34 3 3c0 .97-.5 1.88-1.29 2.41l-.3.19c-.57.4-.91 1.02-.91 1.7v.2h-1.5v-.2c0-1.19.6-2.3 1.59-2.95l.29-.19c.39-.26.62-.69.62-1.16 0-.82-.67-1.5-1.5-1.5s-1.5.67-1.5 1.5z"/></svg>

<?xml version="1.0" encoding="UTF-8"?><!DOCTYPE svg PUBLIC "-//W3C//DTD SVG 1.1//EN" "http://www.w3.org/Graphics/SVG/1.1/DTD/svg11.dtd"><svg xmlns="http://www.w3.org/2000/svg" xmlns:xlink="http://www.w3.org/1999/xlink" version="1.1" id="mdi-beaker-question" width="24" height="24" viewBox="0 0 24 24"><path d="M0 3H18V5C16.9 5 16 5.9 16 7V19C16 20.1 15.1 21 14 21H4C2.9 21 2 20.1 2 19V7C2 5.9 1.1 5 0 5V3M4 9V10H7V9H4M4 11V12H7V11H4M7 16V15H4V16H7M9 14V13H4V14H9M9 8V7H4V8H9M21.5 15.5V17H20V15.5H21.5M19.5 10.5H18V10C18 8.34 19.34 7 21 7C22.66 7 24 8.34 24 10C24 10.97 23.5 11.88 22.71 12.41L22.41 12.6C21.84 13 21.5 13.62 21.5 14.3V14.5H20V14.3C20 13.11 20.6 12 21.59 11.35L21.88 11.16C22.27 10.9 22.5 10.47 22.5 10C22.5 9.18 21.83 8.5 21 8.5C20.17 8.5 19.5 9.17 19.5 10V10.5Z" /></svg>
